src/assets/media/icon_add_photo.svg

<svg width="18" height="16" viewBox="0 0 18 16" fill="none" xmlns="http://www.w3.org/2000/svg">
    <path d="M9.00065 11.0565C10.4734 11.0565 11.6673 9.86262 11.6673 8.38986C11.6673 6.9171 10.4734 5.72319 9.00065 5.72319C7.52789 5.72319 6.33398 6.9171 6.33398 8.38986C6.33398 9.86262 7.52789 11.0565 9.00065 11.0565Z"
          fill="#2F56FF"/>
    <path d="M6.50033 0.0571775L4.97533 1.72384H2.33366C1.41699 1.72384 0.666992 2.47384 0.666992 3.39051V13.3905C0.666992 14.3072 1.41699 15.0572 2.33366 15.0572H15.667C16.5837 15.0572 17.3337 14.3072 17.3337 13.3905V3.39051C17.3337 2.47384 16.5837 1.72384 15.667 1.72384H13.0253L11.5003 0.0571775H6.50033ZM9.00033 12.5572C6.70033 12.5572 4.83366 10.6905 4.83366 8.39051C4.83366 6.09051 6.70033 4.22384 9.00033 4.22384C11.3003 4.22384 13.167 6.09051 13.167 8.39051C13.167 10.6905 11.3003 12.5572 9.00033 12.5572Z"
          fill="#2F56FF"/>
</svg>

<svg width="18" height="16" fill="none" xmlns="http://www.w3.org/2000/svg">
    <path d="M9 11.056a2.667 2.667 0 1 0 0-5.333 2.667 2.667 0 0 0 0 5.333z" fill="#2F56FF"/>
    <path d="M6.5.057 4.975 1.724H2.334c-.917 0-1.667.75-1.667 1.667v10c0 .916.75 1.666 1.667 1.666h13.333c.917 0 1.667-.75 1.667-1.667v-10c0-.916-.75-1.666-1.667-1.666h-2.642L11.5.057h-5zm2.5 12.5a4.168 4.168 0 0 1-4.166-4.166C4.834 6.09 6.7 4.224 9 4.224c2.3 0 4.167 1.867 4.167 4.167S11.3 12.557 9 12.557z"
          fill="#2F56FF"/>
</svg>
